public/img/festival-doc-1.svg

<svg width="104" height="104" viewBox="0 0 104 104" fill="none" xmlns="http://www.w3.org/2000/svg">
<path d="M77.9989 15.5996H57.199H1.73242V102.266H77.9989V22.533V15.5996Z" fill="#FFE100"/>
<path d="M1.73242 102.266H6.93235V15.5996H1.73242V102.266Z" fill="white"/>
<path d="M81.4648 1.73242H25.998V15.5992H57.198H77.9981V22.5325V88.3992H102.265V8.6658V1.73242H81.4648Z" fill="#FFE100"/>
<path d="M97.0664 1.73242V8.6658V88.3992H102.266V8.6658V1.73242H97.0664Z" fill="#FFA800"/>
<path d="M78 32.9332H93.6V26H78V32.9332Z" fill="#FDCC00"/>
<path d="M78 48.5347H93.6V41.6016H78V48.5347Z" fill="#FDCC00"/>
<path d="M10.4004 78.0017H29.4671V71.0684H10.4004V78.0017Z" fill="#FDCC00"/>
<path d="M10.4004 93.6013H29.4671V86.668H10.4004V93.6013Z" fill="#FDCC00"/>
<path d="M10.4004 31.201H29.4671V24.2676H10.4004V31.201Z" fill="#FDCC00"/>
<path d="M50.2676 62.4002H69.3343V55.4668H50.2676V62.4002Z" fill="#FDCC00"/>
<path d="M50.2676 46.8006H69.3343V39.8672H50.2676V46.8006Z" fill="#FDCC00"/>
<path d="M3.46669 100.534H76.2667V17.3337H3.46669V100.534ZM77.9999 104H1.73324C0.77462 104 0 103.224 0 102.267V15.6004C0 14.6437 0.774827 13.8672 1.73324 13.8672H77.9997C78.9565 13.8672 79.733 14.6437 79.733 15.6004V102.267C79.7332 103.224 78.9567 104 77.9999 104Z" fill="black"/>
<path d="M12.1327 76.2671H27.7327V72.8005H12.1327V76.2671ZM29.4659 79.7338H10.3993C9.44064 79.7338 8.66602 78.9574 8.66602 78.0006V71.0672C8.66602 70.1105 9.44084 69.334 10.3993 69.334H29.4659C30.4227 69.334 31.1992 70.1105 31.1992 71.0672V78.0006C31.1994 78.9574 30.4227 79.7338 29.4659 79.7338Z" fill="black"/>
<path d="M12.1327 91.8668H27.7327V88.4001H12.1327V91.8668ZM29.4659 95.3335H10.3993C9.44064 95.3335 8.66602 94.557 8.66602 93.6002V86.6668C8.66602 85.7101 9.44084 84.9336 10.3993 84.9336H29.4659C30.4227 84.9336 31.1992 85.7101 31.1992 86.6668V93.6002C31.1994 94.557 30.4227 95.3335 29.4659 95.3335Z" fill="black"/>
<path d="M51.9986 72.8005H45.0653C44.1066 72.8005 43.332 72.024 43.332 71.0672C43.332 70.1105 44.1069 69.334 45.0653 69.334H51.9986C52.9573 69.334 53.7319 70.1105 53.7319 71.0672C53.7319 72.0238 52.9571 72.8005 51.9986 72.8005Z" fill="black"/>
<path d="M62.3984 79.7341H41.5985C40.6399 79.7341 39.8652 78.9576 39.8652 78.0008C39.8652 77.0441 40.6401 76.2676 41.5985 76.2676H62.3984C63.357 76.2676 64.1316 77.0441 64.1316 78.0008C64.1318 78.9576 63.357 79.7341 62.3984 79.7341Z" fill="black"/>
<path d="M69.333 95.3337H46.7996C45.841 95.3337 45.0664 94.5572 45.0664 93.6004C45.0664 92.6437 45.8412 91.8672 46.7996 91.8672H69.333C70.2916 91.8672 71.0663 92.6437 71.0663 93.6004C71.0663 94.5572 70.2916 95.3337 69.333 95.3337Z" fill="black"/>
<path d="M69.3325 72.8005H58.9325C57.9738 72.8005 57.1992 72.024 57.1992 71.0672C57.1992 70.1105 57.974 69.334 58.9325 69.334H69.3325C70.2911 69.334 71.0658 70.1105 71.0658 71.0672C71.0658 72.0238 70.2911 72.8005 69.3325 72.8005Z" fill="black"/>
<path d="M12.1327 29.4666H27.7327V25.9999H12.1327V29.4666ZM29.4659 32.9331H10.3993C9.44064 32.9331 8.66602 32.1566 8.66602 31.1998V24.2664C8.66602 23.3097 9.44084 22.5332 10.3993 22.5332H29.4659C30.4227 22.5332 31.1992 23.3097 31.1992 24.2664V31.1998C31.1994 32.1566 30.4227 32.9331 29.4659 32.9331Z" fill="black"/>
<path d="M69.3317 88.4001H38.1317C37.1731 88.4001 36.3984 87.6236 36.3984 86.6668C36.3984 85.7101 37.1733 84.9336 38.1317 84.9336H69.3317C70.2903 84.9336 71.0649 85.7101 71.0649 86.6668C71.0649 87.6234 70.2903 88.4001 69.3317 88.4001Z" fill="black"/>
<path d="M51.9999 60.6656H67.5999V57.1989H51.9999V60.6656ZM69.3331 64.1323H50.2664C49.3078 64.1323 48.5332 63.3558 48.5332 62.399V55.4657C48.5332 54.5089 49.308 53.7324 50.2664 53.7324H69.3331C70.2899 53.7324 71.0664 54.5089 71.0664 55.4657V62.399C71.0666 63.3558 70.2901 64.1323 69.3331 64.1323Z" fill="black"/>
<path d="M51.9999 45.066H67.5999V41.5993H51.9999V45.066ZM69.3331 48.5327H50.2664C49.3078 48.5327 48.5332 47.7562 48.5332 46.7994V39.8661C48.5332 38.9093 49.308 38.1328 50.2664 38.1328H69.3331C70.2899 38.1328 71.0664 38.9093 71.0664 39.8661V46.7994C71.0666 47.7562 70.2901 48.5327 69.3331 48.5327Z" fill="black"/>
<path d="M39.8665 41.5993H27.7332C26.7746 41.5993 26 40.8228 26 39.8661C26 38.9093 26.7748 38.1328 27.7332 38.1328H39.8665C40.8252 38.1328 41.5998 38.9093 41.5998 39.8661C41.5998 40.8228 40.8252 41.5993 39.8665 41.5993Z" fill="black"/>
<path d="M43.3327 48.5329H17.3328C16.3742 48.5329 15.5996 47.7564 15.5996 46.7997C15.5996 45.8429 16.3744 45.0664 17.3328 45.0664H43.3329C44.2915 45.0664 45.0661 45.8429 45.0661 46.7997C45.0661 47.7564 44.2913 48.5329 43.3327 48.5329Z" fill="black"/>
<path d="M32.9326 64.1325H10.3993C9.44064 64.1325 8.66602 63.356 8.66602 62.3993C8.66602 61.4425 9.44084 60.666 10.3993 60.666H32.9326C33.8912 60.666 34.6659 61.4425 34.6659 62.3993C34.6659 63.356 33.891 64.1325 32.9326 64.1325Z" fill="black"/>
<path d="M20.7993 41.5993H10.3993C9.44064 41.5993 8.66602 40.8228 8.66602 39.8661C8.66602 38.9093 9.44084 38.1328 10.3993 38.1328H20.7993C21.7579 38.1328 22.5326 38.9093 22.5326 39.8661C22.5326 40.8228 21.7577 41.5993 20.7993 41.5993Z" fill="black"/>
<path d="M41.5992 57.2009H10.3993C9.44064 57.2009 8.66602 56.4244 8.66602 55.4676C8.66602 54.5109 9.44084 53.7344 10.3993 53.7344H41.5992C42.5579 53.7344 43.3325 54.5109 43.3325 55.4676C43.3325 56.4244 42.5576 57.2009 41.5992 57.2009Z" fill="black"/>
<path d="M86.6655 65.8669H77.9989C77.0402 65.8669 76.2656 65.0904 76.2656 64.1336C76.2656 63.1769 77.0405 62.4004 77.9989 62.4004H86.6655C87.6241 62.4004 88.3987 63.1769 88.3987 64.1336C88.3989 65.0904 87.6241 65.8669 86.6655 65.8669Z" fill="black"/>
<path d="M93.5989 81.4665H77.9989C77.0402 81.4665 76.2656 80.69 76.2656 79.7332C76.2656 78.7765 77.0405 78 77.9989 78H93.5989C94.5575 78 95.3321 78.7765 95.3321 79.7332C95.3323 80.69 94.5575 81.4665 93.5989 81.4665Z" fill="black"/>
<path d="M93.5991 58.9333H84.9325C83.9738 58.9333 83.1992 58.1568 83.1992 57.2C83.1992 56.2433 83.974 55.4668 84.9325 55.4668H93.5991C94.5577 55.4668 95.3323 56.2433 95.3323 57.2C95.3325 58.1568 94.5577 58.9333 93.5991 58.9333Z" fill="black"/>
<path d="M74.5318 10.4001H67.5985C66.6399 10.4001 65.8652 9.6236 65.8652 8.66683C65.8652 7.71007 66.6401 6.93359 67.5985 6.93359H74.5318C75.4905 6.93359 76.2651 7.71007 76.2651 8.66683C76.2651 9.6236 75.4905 10.4001 74.5318 10.4001Z" fill="black"/>
<path d="M39.8658 10.4001H32.9325C31.9738 10.4001 31.1992 9.6236 31.1992 8.66683C31.1992 7.71007 31.974 6.93359 32.9325 6.93359H39.8658C40.8245 6.93359 41.5991 7.71007 41.5991 8.66683C41.5991 9.6236 40.8245 10.4001 39.8658 10.4001Z" fill="black"/>
<path d="M93.6001 10.4001H83.2C82.2414 10.4001 81.4668 9.6236 81.4668 8.66683C81.4668 7.71007 82.2416 6.93359 83.2 6.93359H93.6001C94.5587 6.93359 95.3333 7.71007 95.3333 8.66683C95.3333 9.6236 94.5587 10.4001 93.6001 10.4001Z" fill="black"/>
<path d="M93.5983 19.0661H86.6649C85.7063 19.0661 84.9316 18.2896 84.9316 17.3329C84.9316 16.3761 85.7065 15.5996 86.6649 15.5996H93.5983C94.5569 15.5996 95.3315 16.3761 95.3315 17.3329C95.3317 18.2896 94.5569 19.0661 93.5983 19.0661Z" fill="black"/>
<path d="M58.9321 10.4001H48.5321C47.5734 10.4001 46.7988 9.6236 46.7988 8.66683C46.7988 7.71007 47.5737 6.93359 48.5321 6.93359H58.9321C59.8907 6.93359 60.6654 7.71007 60.6654 8.66683C60.6654 9.6236 59.8907 10.4001 58.9321 10.4001Z" fill="black"/>
<path d="M93.5989 74.5329H77.9989C77.0402 74.5329 76.2656 73.7564 76.2656 72.7996C76.2656 71.8429 77.0405 71.0664 77.9989 71.0664H93.5989C94.5575 71.0664 95.3321 71.8429 95.3321 72.7996C95.3323 73.7564 94.5575 74.5329 93.5989 74.5329Z" fill="black"/>
<path d="M79.7321 31.2007H91.8654V27.7341H79.7321V31.2007ZM93.5989 34.6674H77.9989C77.0402 34.6674 76.2656 33.891 76.2656 32.9342V26.0008C76.2656 25.0441 77.0405 24.2676 77.9989 24.2676H93.5989C94.5556 24.2676 95.3321 25.0441 95.3321 26.0008V32.9342C95.3321 33.891 94.5556 34.6674 93.5989 34.6674Z" fill="black"/>
<path d="M79.7321 46.8004H91.8654V43.3337H79.7321V46.8004ZM93.5989 50.267H77.9989C77.0402 50.267 76.2656 49.4906 76.2656 48.5338V41.6004C76.2656 40.6437 77.0405 39.8672 77.9989 39.8672H93.5989C94.5556 39.8672 95.3321 40.6437 95.3321 41.6004V48.5338C95.3321 49.4906 94.5556 50.267 93.5989 50.267Z" fill="black"/>
<path d="M65.8656 27.7341H51.9989C51.0402 27.7341 50.2656 26.9576 50.2656 26.0008C50.2656 25.0441 51.0404 24.2676 51.9989 24.2676H65.8656C66.8242 24.2676 67.5989 25.0441 67.5989 26.0008C67.5991 26.9576 66.8242 27.7341 65.8656 27.7341Z" fill="black"/>
<path d="M69.3318 34.6677H41.5985C40.6399 34.6677 39.8652 33.8912 39.8652 32.9344C39.8652 31.9777 40.6401 31.2012 41.5985 31.2012H69.3318C70.2904 31.2012 71.065 31.9777 71.065 32.9344C71.065 33.8912 70.2904 34.6677 69.3318 34.6677Z" fill="black"/>
<path d="M45.0659 27.7341H36.3993C35.4406 27.7341 34.666 26.9576 34.666 26.0008C34.666 25.0441 35.4408 24.2676 36.3993 24.2676H45.0659C46.0245 24.2676 46.7991 25.0441 46.7991 26.0008C46.7991 26.9576 46.0243 27.7341 45.0659 27.7341Z" fill="black"/>
<path d="M79.7322 86.6666H100.532V3.46669H27.7321V13.8667H77.9988C78.9574 13.8667 79.732 14.6432 79.732 15.6V86.6666H79.7322ZM102.265 90.1333H77.9988C77.0401 90.1333 76.2655 89.3568 76.2655 88.4V17.3332H25.9989C25.0402 17.3332 24.2656 16.5568 24.2656 15.6V1.73324C24.2656 0.776478 25.0402 0 25.9989 0H102.265C103.224 0 103.999 0.776478 103.999 1.73324V88.3998C103.999 89.3568 103.224 90.1333 102.265 90.1333Z" fill="black"/>
</svg>

<svg width="104" height="104" fill="none" xmlns="http://www.w3.org/2000/svg"><path d="M77.999 15.6H1.732v86.666H78V15.6z" fill="#FFE100"/><path d="M1.732 102.266h5.2V15.6h-5.2v86.666z" fill="#fff"/><path d="M81.465 1.732H25.998V15.6h52v72.8h24.267V1.732h-20.8z" fill="#FFE100"/><path d="M97.066 1.732V88.4h5.2V1.732h-5.2z" fill="#FFA800"/><path d="M78 32.933h15.6V26H78v6.933zm0 15.602h15.6v-6.933H78v6.933zM10.4 78.002h19.067v-6.934H10.4v6.934zm0 15.599h19.067v-6.933H10.4v6.933zm0-62.4h19.067v-6.933H10.4V31.2zM50.268 62.4h19.066v-6.933H50.268V62.4zm0-15.6h19.066v-6.933H50.268v6.934z" fill="#FDCC00"/><path d="M3.467 100.534h72.8v-83.2h-72.8v83.2zM78 104H1.733A1.732 1.732 0 010 102.267V15.6c0-.956.775-1.733 1.733-1.733H78c.957 0 1.733.777 1.733 1.733v86.667c0 .957-.776 1.733-1.733 1.733z" fill="#000"/><path d="M12.133 76.267h15.6v-3.466h-15.6v3.466zm17.333 3.467H10.399A1.733 1.733 0 018.666 78v-6.934c0-.956.775-1.733 1.733-1.733h19.067c.957 0 1.733.776 1.733 1.733V78c0 .956-.776 1.733-1.733 1.733zM12.133 91.867h15.6V88.4h-15.6v3.467zm17.333 3.466H10.399A1.733 1.733 0 018.666 93.6v-6.933c0-.957.775-1.733 1.733-1.733h19.067c.957 0 1.733.776 1.733 1.733V93.6c0 .957-.776 1.734-1.733 1.734zM51.999 72.8h-6.934a1.733 1.733 0 110-3.466H52a1.733 1.733 0 110 3.466zm10.399 6.934h-20.8a1.733 1.733 0 110-3.466h20.8a1.733 1.733 0 110 3.466zm6.935 15.6H46.8a1.733 1.733 0 110-3.467h22.533a1.733 1.733 0 110 3.467zM69.332 72.8h-10.4a1.733 1.733 0 110-3.466h10.4a1.733 1.733 0 110 3.466zM12.133 29.467h15.6V26h-15.6v3.467zm17.333 3.466H10.399A1.733 1.733 0 018.666 31.2v-6.934c0-.956.775-1.733 1.733-1.733h19.067c.957 0 1.733.777 1.733 1.733V31.2c0 .957-.776 1.733-1.733 1.733zM69.332 88.4h-31.2a1.733 1.733 0 110-3.466h31.2a1.733 1.733 0 110 3.466zM52 60.666h15.6v-3.467H52v3.467zm17.333 3.466H50.266a1.733 1.733 0 01-1.733-1.733v-6.933c0-.957.775-1.734 1.733-1.734h19.067c.957 0 1.733.777 1.733 1.734v6.933c0 .957-.776 1.733-1.733 1.733zM52 45.066h15.6v-3.467H52v3.467zm17.333 3.467H50.266a1.733 1.733 0 01-1.733-1.734v-6.933c0-.957.775-1.733 1.733-1.733h19.067c.957 0 1.733.776 1.733 1.733V46.8c0 .957-.776 1.734-1.733 1.734zM39.867 41.6H27.733a1.733 1.733 0 110-3.467h12.134a1.733 1.733 0 110 3.466zm3.466 6.933h-26a1.733 1.733 0 110-3.467h26a1.733 1.733 0 110 3.467zm-10.4 15.599H10.399a1.733 1.733 0 110-3.466h22.534a1.733 1.733 0 110 3.466zM20.8 41.6H10.4a1.733 1.733 0 110-3.467h10.4a1.733 1.733 0 110 3.466zm20.8 15.6H10.4a1.733 1.733 0 110-3.466h31.2a1.733 1.733 0 110 3.467zm45.065 8.667H78a1.733 1.733 0 110-3.467h8.666a1.733 1.733 0 110 3.467zm6.934 15.599h-15.6a1.733 1.733 0 110-3.466h15.6a1.733 1.733 0 110 3.466zm.001-22.533h-8.667a1.733 1.733 0 110-3.466h8.666a1.733 1.733 0 110 3.466zM74.532 10.4h-6.933a1.733 1.733 0 110-3.466h6.933a1.733 1.733 0 110 3.466zm-34.666 0h-6.934a1.733 1.733 0 110-3.466h6.934a1.733 1.733 0 110 3.466zm53.734 0H83.2a1.733 1.733 0 110-3.466h10.4a1.733 1.733 0 110 3.466zm-.002 8.666h-6.933a1.733 1.733 0 110-3.466h6.933a1.733 1.733 0 110 3.466zM58.932 10.4h-10.4a1.733 1.733 0 110-3.466h10.4a1.733 1.733 0 110 3.466zm34.667 64.133h-15.6a1.733 1.733 0 110-3.467h15.6a1.733 1.733 0 110 3.467zM79.732 31.2h12.133v-3.466H79.732v3.467zM93.6 34.668H78a1.733 1.733 0 01-1.733-1.733v-6.933c0-.957.774-1.733 1.733-1.733h15.6c.957 0 1.733.776 1.733 1.733v6.933c0 .957-.776 1.733-1.733 1.733zM79.732 46.8h12.133v-3.466H79.732V46.8zM93.6 50.267H78a1.733 1.733 0 01-1.733-1.733V41.6c0-.956.774-1.733 1.733-1.733h15.6c.957 0 1.733.777 1.733 1.733v6.934c0 .957-.776 1.733-1.733 1.733zM65.866 27.734H51.999a1.733 1.733 0 110-3.466h13.867a1.733 1.733 0 110 3.466zm3.466 6.934H41.599a1.733 1.733 0 110-3.467h27.733a1.733 1.733 0 110 3.467zm-24.266-6.934h-8.667a1.733 1.733 0 110-3.466h8.667a1.733 1.733 0 110 3.466z" fill="#000"/><path d="M79.732 86.667h20.8v-83.2h-72.8v10.4H78c.958 0 1.733.776 1.733 1.733v71.067zm22.533 3.466H77.999a1.733 1.733 0 01-1.733-1.733V17.333H25.998a1.733 1.733 0 01-1.733-1.733V1.733A1.733 1.733 0 0125.999 0h76.266c.959 0 1.734.776 1.734 1.733V88.4c0 .957-.775 1.733-1.734 1.733z" fill="#000"/></svg>
